X: 42373
T: Well May Charlie Wear The Crown
R: strathspey
M: 4/4
K: Bminor
(f>e)|d2 Tc>B B>c {Bc}d>D|F2 A>B A2 (f>e)|d2 Tc>B B>c {Bc}d>^E|F2 B>c B2 (f>e)|
d2 c>B B>c {Bc}d>D|F2 A2 {c}Ha2 z g|f>ed>c B>c {Bc}d^E|F2 B>c B2:|
|:T(B/A/B/c/)|Td>cde {d}f3e|e>dcTB {AB}A2 (fe)|d2 Tc>B B>c {Bc}d>^E|F2 B>c HB2 B>c|
Td>cd>e {d}f3e|e>dc>B {AB}Ha3 g|f>ed>c B>c {Bc}d>^E|F2 B>c [B2D2]:|

